source/img/tablet-features-image1.svg

<svg width="80" height="80" viewBox="0 0 80 80" fill="none" xmlns="http://www.w3.org/2000/svg">
<rect width="80" height="80" fill="#68B738"/>
<g clip-path="url(#clip0)">
<path d="M51.8437 27.767C51.7434 27.317 51.3647 27 50.9325 27C50.9306 27 50.9287 27 50.9269 27C45.9891 27.033 33.9816 27.916 29.1337 35.38C26.6156 39.258 26.3991 44.293 28.4897 50.345C28.5056 50.392 28.5384 50.424 28.56 50.467C27.8128 52.44 27.5231 53.753 27.5156 53.79C27.4069 54.33 27.7303 54.862 28.2366 54.978C28.3022 54.993 28.3678 55 28.4334 55C28.8656 55 29.2547 54.679 29.3494 54.21C29.3691 54.108 31.7578 43.837 40.2028 37.832C40.6341 37.526 40.7503 36.905 40.4625 36.445C40.1747 35.985 39.5934 35.86 39.1622 36.168C34.3734 39.573 31.4241 44.176 29.6897 47.824C28.4484 43.246 28.7737 39.447 30.6759 36.519C34.4194 30.755 43.2984 29.365 48.6581 29.071C47.505 30.872 46.245 34.174 46.245 40C46.245 43.12 45.4153 45.522 43.7803 47.14C41.1591 49.731 36.9009 49.974 33.7866 49.724C33.2691 49.679 32.82 50.095 32.7806 50.646C32.7412 51.196 33.1284 51.676 33.6441 51.718C34.2675 51.769 34.9331 51.8 35.625 51.8C38.7956 51.8 42.4941 51.137 45.0544 48.606C47.0887 46.595 48.12 43.7 48.12 40.001C48.12 30.902 51.3356 28.905 51.3516 28.896C51.7416 28.687 51.9459 28.219 51.8437 27.767Z" fill="white"/>
</g>
<defs>
<clipPath id="clip0">
<rect width="30" height="32" fill="white" transform="translate(24 25)"/>
</clipPath>
</defs>
</svg>

<svg width="80" height="80" fill="none" xmlns="http://www.w3.org/2000/svg"><path fill="#68B738" d="M0 0h80v80H0z"/><g clip-path="url(#clip0)"><path d="M51.84 27.77a.95.95 0 00-.9-.77h-.01c-4.94.03-16.95.92-21.8 8.38-2.51 3.88-2.73 8.91-.64 14.96l.07.13a25.93 25.93 0 00-1.04 3.32c-.11.54.21 1.07.72 1.19l.2.02c.43 0 .81-.32.9-.79.03-.1 2.42-10.37 10.86-16.38.43-.3.55-.92.26-1.38a.9.9 0 00-1.3-.28c-4.79 3.4-7.74 8-9.47 11.65-1.24-4.57-.92-8.37.99-11.3 3.74-5.77 12.62-7.16 17.98-7.45-1.15 1.8-2.41 5.1-2.41 10.93 0 3.12-.83 5.52-2.47 7.14-2.62 2.6-6.88 2.83-10 2.58-.51-.04-.96.38-1 .93-.04.55.35 1.03.86 1.07.63.05 1.3.08 1.98.08 3.18 0 6.87-.66 9.43-3.2 2.04-2 3.07-4.9 3.07-8.6 0-9.1 3.22-11.1 3.23-11.1.4-.21.6-.68.5-1.13z" fill="#fff"/></g><defs><clipPath id="clip0"><path fill="#fff" transform="translate(24 25)" d="M0 0h30v32H0z"/></clipPath></defs></svg>
